X: 5
T:Snow Deer (harmony)
R:reel
H:Bob Wills?
Z:Transcribed to abc by Debbie Knight, edited by Mary Lou Knack
M:C|
K:C
C2E2F2| G2GF G2GA |G2E2 D2E2 |F2FE F2FG |F2E2 D2C2 |      B,4 G4- |G2F2 E2D2 |C4 G4- |G2C2 E2F2 |
G2GF G2GA |G2E2 D2E2 |F2FE F2FG |F2E2 D2C2 |      B,4 F4- |F2E2 F2G2 | E8- |E2E2 F2G2|
A4 F4- |F2A2  G2F2 | E4 G4- |G4 G3A |      G2F2 F2EF- |F4 F3G | F2E2 E2DE- |E2 E2F2G2|
A4 F4- |F2A2  G2F2 | E4 G4- |G4 G3A |      G2F2 F2EF- |F2A2 G2F2| E8 |1 E2 :|2 E8|]
%%text tag line
FFDF _AAFA| BB_AB d2d2| ecd^d ec=d^d| e^d=dc- c4|
%%text 04/01/00 

#include "LeftHeader.h"
%%vskip 3in
%%textfont       Times-Bold 13.0
%%center This page intentionally left blank
%%textfont       Times-Roman 7.0

#include "RightHeader.h"
%%scale .65
% ------- set 57 -------
% Falling Off A Log (G/D) / Mist Over Tennessee (G) / Hommage a. Jos. Bouchard (C/Am)
%%text Set 57
